images/icons/v2/emoji-travel-solid-20.svg

<svg height="20" viewBox="0 0 20 20" width="20" xmlns="http://www.w3.org/2000/svg"><path d="m14.5 8.5 2.2-2.2c1.6-1.6 2.2-3.6 1.4-4.4s-2.9-.1-4.4 1.4l-2.2 2.2-3.8-1.3-4.8-2-1.8 1.8 4.5 3.9 1.7 1.7-1.2 1.2a7.018 7.018 0 0 0 -.6.9h-3.4l-1 1.1 3.1 1.9a7.782 7.782 0 0 0 -.3.9l.6.6.9-.3 1.9 3 1-1v-3.4l.9-.6 1.1-1.1 1.7 1.8 3.8 4.6 1.8-1.8-1.9-4.9z"/></svg>

<svg xmlns="http://www.w3.org/2000/svg" width="20" height="20" viewBox="0 0 20 20"><title>emoji-travel-solid-20</title><path d="M14.5,8.5l2.2-2.2c1.6-1.6,2.2-3.6,1.4-4.4s-2.9-.1-4.4,1.4L11.5,5.5,7.7,4.2l-4.8-2L1.1,4,5.6,7.9,7.3,9.6,6.1,10.8a7.018,7.018,0,0,0-.6.9H2.1l-1,1.1,3.1,1.9a7.782,7.782,0,0,0-.3.9l.6.6.9-.3,1.9,3,1-1V14.5l.9-.6,1.1-1.1L12,14.6l3.8,4.6,1.8-1.8-1.9-4.9Z"/></svg>
